Newaita/actions/16/games-solve.svg

<svg height="16" viewBox="0 0 16 16" width="16" xmlns="http://www.w3.org/2000/svg"><g fill="#424242"><path d="m13.328125 1.582031c-.128906-.003906-.25.0625-.3125.171875l-5.484375 9.617188-4.890625-4.890625c-.132813-.136719-.351563-.136719-.484375 0l-.496094.496093c-.132812.132813-.132812.351563 0 .484376l5.871094 5.871093c.160156.160157.425781.125.539062-.074219l6.160157-10.789062c.09375-.164062.039062-.367188-.121094-.464844l-.621094-.371094c-.046875-.03125-.105469-.046874-.160156-.050781zm0 0"/><path d="m7.609375 8.0625c-1.835937 0-3.308594 1.476562-3.308594 3.308594 0 1.832031 1.472657 3.308594 3.308594 3.308594 1.832031 0 3.304687-1.476563 3.304687-3.308594 0-1.832032-1.472656-3.308594-3.304687-3.308594zm0 .664062c1.464844 0 2.644531 1.179688 2.644531 2.644532s-1.179687 2.644531-2.644531 2.644531c-1.46875 0-2.648437-1.179687-2.648437-2.644531s1.179687-2.644532 2.648437-2.644532zm0 0"/></g></svg>

<svg xmlns="http://www.w3.org/2000/svg" xmlns:xlink="http://www.w3.org/1999/xlink" width="16px" height="16px" viewBox="0 0 16 16" version="1.1">
<g id="surface1">
     <defs>
  <style id="current-color-scheme" type="text/css">
   .ColorScheme-Text { color:#424242; } .ColorScheme-Highlight { color:#eeeeee; }
  </style>
 </defs>
<path style="fill:currentColor" class="ColorScheme-Text" d="M 13.328125 1.582031 C 13.199219 1.578125 13.078125 1.644531 13.015625 1.753906 L 7.53125 11.371094 L 2.640625 6.480469 C 2.507812 6.34375 2.289062 6.34375 2.15625 6.480469 L 1.660156 6.976562 C 1.527344 7.109375 1.527344 7.328125 1.660156 7.460938 L 7.53125 13.332031 C 7.691406 13.492188 7.957031 13.457031 8.070312 13.257812 L 14.230469 2.46875 C 14.324219 2.304688 14.269531 2.101562 14.109375 2.003906 L 13.488281 1.632812 C 13.441406 1.601562 13.382812 1.585938 13.328125 1.582031 Z M 13.328125 1.582031 "/>
     <defs>
  <style id="current-color-scheme" type="text/css">
   .ColorScheme-Text { color:#424242; } .ColorScheme-Highlight { color:#eeeeee; }
  </style>
 </defs>
<path style="fill:currentColor" class="ColorScheme-Text" d="M 7.609375 8.0625 C 5.773438 8.0625 4.300781 9.539062 4.300781 11.371094 C 4.300781 13.203125 5.773438 14.679688 7.609375 14.679688 C 9.441406 14.679688 10.914062 13.203125 10.914062 11.371094 C 10.914062 9.539062 9.441406 8.0625 7.609375 8.0625 Z M 7.609375 8.726562 C 9.074219 8.726562 10.253906 9.90625 10.253906 11.371094 C 10.253906 12.835938 9.074219 14.015625 7.609375 14.015625 C 6.140625 14.015625 4.960938 12.835938 4.960938 11.371094 C 4.960938 9.90625 6.140625 8.726562 7.609375 8.726562 Z M 7.609375 8.726562 "/>
</g>
</svg>
